modules/salescenter/install/components/bitrix/salescenter.paysystem.panel/templates/.default/images/yandexcheckout_webmoney_s.svg

<svg width="146" height="56" viewBox="0 0 146 56" fill="none" xmlns="http://www.w3.org/2000/svg">
<path fill-rule="evenodd" clip-rule="evenodd" d="M100.789 12.4688L103.701 20.8843H103.838L106.431 12.4688H108.866L104.747 23.9017C103.608 27.0578 102.221 28.7047 99.6047 28.7047V26.8306C101.153 26.8306 102.107 25.5951 102.655 23.9017L98.2853 12.4688H100.789ZM131.208 0.75354C133.37 0.75354 135.426 1.24877 137.272 2.13476C137.561 2.26528 137.853 2.42158 138.141 2.57802L136.876 3.69902L134.979 1.74414L131.71 4.61091L129.785 2.5517L123.773 7.89476L127.622 12.0909L126.119 13.3938L129.917 17.59L128.414 18.8922L133.845 24.8609L137.06 21.9416L139.856 25.07C139.302 25.4871 138.695 25.905 138.037 26.2693C136.033 27.3899 133.713 28.0402 131.235 28.0402C123.615 28.0402 117.42 21.9167 117.42 14.3851C117.393 6.90458 123.589 0.75354 131.208 0.75354ZM35.3419 6.93316V13.45C36.0228 13.0855 37.1833 12.6034 38.4126 12.6034C41.2345 12.6034 42.7595 14.5702 42.7595 18.2295C42.7595 22.5063 40.7111 24.5874 37.4131 24.5874C36.2061 24.5874 34.3403 24.1985 32.974 23.4651V7.50422L35.3419 6.93316ZM68.0507 12.4688C71.0554 12.4688 73.2394 14.4577 73.2394 18.4611C73.2394 22.371 71.1688 24.4531 68.0507 24.4531C64.9332 24.4531 62.8626 22.371 62.8626 18.4611C62.8626 14.4577 65.0477 12.4688 68.0507 12.4688ZM92.3805 12.4688C95.226 12.4688 96.9789 14.3223 96.9789 18.0492V18.8954H89.5595C89.5595 21.6389 90.6747 22.8511 93.0186 22.8511C94.2462 22.8511 95.3856 22.4159 96.6349 21.6626V23.4009C95.6116 23.9953 94.2462 24.4531 92.6074 24.4531C88.7865 24.4531 87.2155 22.0747 87.2155 18.4618C87.2155 14.9843 88.9667 12.4688 92.3805 12.4688ZM25.4279 12.4688C28.2716 12.4688 30.0249 14.3223 30.0249 18.0492V18.8954H22.6065C22.6065 21.6389 23.7208 22.8511 26.0657 22.8511C27.2941 22.8511 28.4319 22.4159 29.6825 21.6626V23.4009C28.6588 23.9953 27.2941 24.4531 25.6546 24.4531C21.8327 24.4531 20.2625 22.0747 20.2625 18.4618C20.2625 14.9843 22.0144 12.4688 25.4279 12.4688ZM3.42043 8.05048L5.96932 20.149H6.1284L9.08624 8.05048H11.1122L14.2755 20.149H14.4348L16.7563 8.05048H19.4189L15.7312 24.2646H13.2734L10.1798 12.8517H10.0197L7.01495 24.2646H4.5588L0.87207 8.05048H3.42043ZM47.9049 8.04032L53.0017 20.8242H53.1156L57.9844 8.04032H60.8078V24.2557H58.3502V12.5002H58.1449L53.5021 24.2557H52.047L47.4029 12.775H47.1989V24.2557H45.1506V8.04032H47.9049ZM80.8422 12.4688C83.5728 12.4688 84.5949 13.5438 84.5949 15.8987V24.1785H82.2301V16.4253C82.2301 14.6191 81.3441 14.2989 80.182 14.2989C79.2728 14.2989 78.1109 14.7113 77.4061 15.1227V24.1785H75.0393V14.1623L75.3186 13.9991C76.4267 13.3721 78.4439 12.4688 80.8422 12.4688ZM141.359 19.206L143.572 21.6297L141.12 23.8446L138.906 21.3957L141.359 19.206ZM37.7991 14.3874C36.8881 14.3874 36.2284 14.6398 35.318 15.142V22.6194C36.0463 22.9393 36.8433 22.9868 37.4131 22.9868C39.0967 22.9868 40.3697 21.9333 40.3697 18.2295C40.3697 15.3251 39.323 14.3874 37.7991 14.3874ZM68.0507 14.0712C66.5494 14.0712 65.251 15.3742 65.251 18.4611C65.251 21.5945 66.4358 22.8511 68.0507 22.8511C69.6656 22.8511 70.8487 21.5945 70.8487 18.4611C70.8487 15.3742 69.598 14.0712 68.0507 14.0712ZM134.293 16.2353L137.272 19.4926L133.976 22.4121L131.024 19.1802L134.293 16.2353ZM139.196 14.28L141.411 16.7292L138.959 18.92L136.745 16.4693L139.196 14.28ZM92.3122 14.0018C90.9238 14.0018 89.8555 15.0765 89.6042 17.362H94.8149C94.7029 14.9615 93.541 14.0018 92.3122 14.0018ZM25.3596 14.0018C23.9715 14.0018 22.9013 15.0765 22.6521 17.362H27.8623C27.7492 14.9615 26.588 14.0018 25.3596 14.0018ZM131.972 10.6313L134.926 13.8891L131.629 16.808L128.677 13.5506L131.972 10.6313ZM143.625 13.4986L145.128 15.1145L143.468 16.5736L141.991 14.9581L143.625 13.4986ZM137.088 9.14586L139.302 11.5694L136.851 13.759L134.635 11.3352L137.088 9.14586ZM141.543 8.67641L143.019 10.2929L141.384 11.752L139.908 10.136L141.543 8.67641ZM129.626 5.08023L132.579 8.33789L129.283 11.257L126.332 7.99938L129.626 5.08023ZM134.82 4.24593L137.035 6.66985L134.583 8.88495L132.368 6.43512L134.82 4.24593ZM139.434 3.82913L140.911 5.47085L139.275 6.93035L137.799 5.31441L139.434 3.82913Z" fill="white"/>
<path fill-rule="evenodd" clip-rule="evenodd" d="M39.4262 46.2769C41.538 44.1708 43.5034 42.2054 43.4696 42.2054L38.7955 37.5314L36.5486 39.7783C36.0643 40.2626 35.794 40.9046 35.794 41.5916C35.794 42.2448 36.0362 42.8643 36.481 43.343L36.7626 43.6245C37.5172 44.3791 38.4745 45.3308 39.4262 46.2769ZM44.8887 48.8955C46.2402 48.8955 47.3383 47.7974 47.3383 46.4458C47.3383 45.0943 46.2458 43.9962 44.8887 43.9962C43.5372 43.9962 42.439 45.0943 42.439 46.4458C42.439 47.7974 43.5372 48.8955 44.8887 48.8955ZM43.2331 50.8721L38.5534 55.5518L32.9558 49.9542C31.0974 48.0958 31.0355 45.1281 32.7643 43.1965L32.7812 43.1796C32.7829 43.1779 32.7846 43.1757 32.7865 43.1733C32.7908 43.1677 32.7959 43.161 32.8037 43.1571C32.8657 43.0839 32.9333 43.0163 33.0008 42.9488L33.0008 42.9488L35.4505 40.4991C35.3153 40.8483 35.2478 41.2199 35.2478 41.6029C35.2478 42.3913 35.5462 43.1459 36.0812 43.7259L36.374 44.0187C37.3595 44.9986 38.2493 45.8827 39.0377 46.6655C41.4141 49.025 42.929 50.5455 43.2331 50.8721ZM53.2805 39.5314C51.4811 39.5314 49.9726 40.7182 49.9726 43.0843C49.9726 44.7765 50.6388 45.6877 51.6419 46.1931L49.5132 50.818H50.9298L52.867 46.4917H53.8854V50.818H55.1106V39.5314H53.2805ZM53.2269 45.481C52.1626 45.481 51.2896 44.899 51.2896 43.0843C51.2896 41.2006 52.2468 40.5574 53.2269 40.5574H53.8778V45.481H53.2269ZM59.7738 46.2008H57.9361V42.8393H56.7033V50.7644H57.9361V47.2115H59.7738V50.7644H60.9913V42.8393H59.7738V46.2008ZM62.2011 49.746C62.9285 48.0691 63.0051 45.6112 63.0051 43.5054V42.8316H66.7035V49.746H67.3314V52.3112H66.2364V50.7568H62.8213V52.3112H61.711V49.746H62.2011ZM64.1077 43.9649C64.1077 45.6341 64.0312 48.0691 63.365 49.7537H65.486V43.8194H64.1077V43.9649ZM72.4081 49.2866C72.0942 49.5087 71.5352 49.8226 70.846 49.8226C69.8659 49.8226 69.3605 48.8808 69.3605 47.089H72.6838V46.4152C72.6838 43.7275 71.8108 42.7397 70.4862 42.7397C68.7939 42.7397 68.0818 44.5928 68.0818 47.1426C68.0818 49.5776 69.0925 50.8869 70.7388 50.8869C71.5275 50.8869 72.1937 50.6343 72.6991 50.2437L72.4081 49.2866ZM70.4785 43.7352C71.1906 43.7352 71.4127 44.7229 71.4127 46.0782H69.3759C69.4524 44.6617 69.7204 43.7352 70.4785 43.7352ZM78.6334 50.7568L76.3669 46.5606L78.3424 42.8393H78.3383L78.3424 42.8316H77.0943L75.18 46.4994V42.8393L75.18 42.8316H73.9472L73.9472 42.8393L73.9472 50.7568L73.9472 50.7644H75.18L75.18 50.7568L75.18 46.8133L75.182 46.817L77.2857 50.7644H78.6257L78.6216 50.7568H78.6334ZM82.9137 44.2941L82.908 44.2892L82.9061 44.3018C82.5768 44.0185 82.1021 43.7505 81.5967 43.7505C81.1842 43.7505 80.8256 43.9672 80.5608 44.4029C80.2639 44.8979 80.0882 45.6721 80.0882 46.7291C80.0882 48.7123 80.563 49.8456 81.5584 49.8456C82.1633 49.8456 82.6151 49.6082 82.9061 49.3555L83.1817 50.2744L83.1738 50.281L83.1741 50.282C82.7453 50.6419 82.2399 50.8793 81.5125 50.8793C79.8049 50.8793 78.7789 49.5087 78.7789 46.8057C78.7789 45.1428 79.2096 43.8834 80.0529 43.2307C80.4729 42.9019 80.9959 42.7244 81.6197 42.7244C82.3318 42.7244 82.7453 42.9158 83.0898 43.1302L82.9137 44.2941ZM92.0794 50.818L88.5647 44.7382L91.796 39.5314H91.0456L87.7607 44.8072V39.5314H86.9797V50.818H87.7607V44.8684L91.1988 50.818H92.0794ZM96.9034 45.0369V49.3938C96.9034 49.9451 96.9799 50.5577 97.0718 50.8487H96.398C96.3291 50.6496 96.2525 50.3433 96.2066 49.7767C95.8237 50.5347 95.2571 51.0095 94.476 51.0095C93.404 51.0095 92.669 50.1519 92.669 48.697C92.669 46.9894 93.5955 46.1012 95.3107 46.1012H96.1759V45.1058C96.1759 43.8883 95.7242 43.3676 94.8589 43.3676C94.1851 43.3676 93.5725 43.6892 93.1973 44.2405L92.9906 43.5284C93.3045 43.1226 93.963 42.7244 94.8589 42.7244C96.1683 42.7244 96.9034 43.4518 96.9034 45.0369ZM94.6368 50.4122C95.3796 50.4122 95.8926 49.7001 96.1759 48.8501V46.6525H95.326C94.0243 46.6525 93.3964 47.2498 93.3964 48.6434C93.3964 49.7613 93.8864 50.4122 94.6368 50.4122ZM102.462 50.1365L102.225 49.5163C102.225 49.5163 101.666 50.3739 100.625 50.3739C99.3766 50.3739 98.8177 49.0722 98.8177 46.8899C98.8177 44.6387 99.3919 43.36 100.625 43.36C101.314 43.36 101.827 43.7734 102.179 44.2635L102.386 43.4748C102.034 43.046 101.459 42.7321 100.625 42.7321C98.9785 42.7321 98.0673 44.2712 98.0673 46.8976C98.0673 49.4933 98.9938 51.0248 100.609 51.0248C101.873 51.0248 102.462 50.1365 102.462 50.1365ZM107.524 49.5163L107.761 50.1365C107.761 50.1365 107.172 51.0248 105.908 51.0248C104.293 51.0248 103.366 49.4933 103.366 46.8976C103.366 44.2712 104.277 42.7321 105.924 42.7321C106.75 42.7321 107.332 43.046 107.685 43.4748L107.478 44.2635C107.126 43.7734 106.613 43.36 105.931 43.36C104.698 43.36 104.124 44.6387 104.124 46.8899C104.124 49.0722 104.683 50.3739 105.931 50.3739C106.965 50.3739 107.524 49.5163 107.524 49.5163ZM112.685 49.3938V45.0369C112.685 43.4518 111.95 42.7244 110.648 42.7244C109.752 42.7244 109.094 43.1226 108.78 43.5284L108.986 44.2405C109.362 43.6892 109.974 43.3676 110.648 43.3676C111.513 43.3676 111.965 43.8883 111.965 45.1058V46.1012H111.1C109.385 46.1012 108.458 46.9894 108.458 48.697C108.458 50.1519 109.193 51.0095 110.265 51.0095C111.054 51.0095 111.62 50.5347 111.996 49.7767C112.042 50.3433 112.126 50.6496 112.187 50.8487H112.861C112.769 50.5577 112.685 49.9451 112.685 49.3938ZM111.965 48.8501C111.682 49.7001 111.161 50.4122 110.426 50.4122C109.676 50.4122 109.185 49.7613 109.185 48.6434C109.185 47.2498 109.813 46.6525 111.115 46.6525H111.965V48.8501Z" fill="white"/>
</svg>

<svg xmlns="http://www.w3.org/2000/svg" width="125" height="54" viewBox="0 0 146 63" fill="none"><g fill="#fff"><path fill-rule="evenodd" d="M100.79 12.47l2.912 8.416h.137l2.593-8.415h2.435l-4.12 11.433c-1.14 3.156-2.526 4.803-5.142 4.803V26.83c1.548 0 2.502-1.236 3.05-2.93l-4.37-11.433h2.504zM131.208.754c2.162 0 4.218.495 6.064 1.38l.87.443-1.265 1.12-1.897-1.955-3.27 2.867-1.925-2.06-6.012 5.343 3.85 4.196-1.503 1.303 3.798 4.196-1.503 1.302 5.43 5.97 3.215-2.92 2.796 3.128a15.63 15.63 0 0 1-1.819 1.199 13.9 13.9 0 0 1-6.802 1.771c-7.62 0-13.815-6.123-13.815-13.655-.027-7.48 6.17-13.632 13.788-13.632zm-95.866 6.18v6.517c.68-.364 1.84-.847 3.07-.847 2.822 0 4.347 1.967 4.347 5.626 0 4.277-2.048 6.358-5.346 6.358a10.5 10.5 0 0 1-4.439-1.122V7.504l2.368-.57zm32.71 5.536c3.005 0 5.19 1.99 5.19 5.992 0 3.9-2.07 5.992-5.19 5.992s-5.188-2.082-5.188-5.992c0-4.003 2.185-5.992 5.188-5.992zm24.33 0c2.846 0 4.598 1.854 4.598 5.58v.846h-7.42c0 2.744 1.115 3.956 3.46 3.956 1.228 0 2.367-.435 3.616-1.188V23.4c-1.023.594-2.39 1.052-4.028 1.052-3.82 0-5.392-2.378-5.392-5.99 0-3.478 1.75-5.993 5.165-5.993zm-66.953 0c2.844 0 4.597 1.854 4.597 5.58v.846h-7.418c0 2.744 1.114 3.956 3.46 3.956 1.228 0 2.366-.435 3.617-1.188V23.4c-1.024.594-2.388 1.052-4.028 1.052-3.822 0-5.392-2.378-5.392-5.99 0-3.478 1.752-5.993 5.165-5.993zM3.42 8.05l2.55 12.1h.16l2.958-12.1h2.026l3.163 12.1h.16l2.322-12.1h2.663L15.73 24.265h-2.458L10.18 12.852h-.16L7.015 24.265H4.56L.872 8.05H3.42zm44.484-.01l5.097 12.784h.114l4.87-12.784h2.823v16.215H58.35V12.5h-.205l-4.643 11.756h-1.455l-4.644-11.48H47.2v11.48H45.15V8.04h2.754zm32.937 4.428c2.73 0 3.753 1.075 3.753 3.43v8.28H82.23v-7.753c0-1.806-.886-2.126-2.048-2.126-.91 0-2.07.412-2.776.824v9.056H75.04V14.162l.28-.163c1.108-.627 3.125-1.53 5.524-1.53zm60.517 6.737l2.213 2.424-2.452 2.215-2.214-2.45 2.453-2.2zM37.8 14.387c-.91 0-1.57.252-2.48.755v7.477c.728.32 1.525.367 2.095.367 1.684 0 2.957-1.053 2.957-4.757 0-2.904-1.047-3.842-2.57-3.842zm30.252-.316c-1.5 0-2.8 1.303-2.8 4.4 0 3.133 1.185 4.4 2.8 4.4s2.798-1.257 2.798-4.4c0-3.087-1.25-4.4-2.798-4.4zm66.242 2.164l2.98 3.257-3.296 2.92-2.952-3.232 3.27-2.945zm4.903-1.955l2.215 2.45-2.452 2.19-2.214-2.45 2.45-2.19zm-46.884-.278c-1.388 0-2.457 1.075-2.708 3.36h5.21c-.112-2.4-1.274-3.36-2.503-3.36zm-66.953 0c-1.388 0-2.458 1.075-2.707 3.36h5.2c-.113-2.4-1.274-3.36-2.503-3.36zm106.612-3.37l2.954 3.258-3.297 2.92-2.952-3.257 3.295-2.92zm11.653 2.867l1.503 1.616-1.66 1.46-1.477-1.615 1.634-1.46zm-6.537-4.353l2.214 2.424-2.45 2.2-2.216-2.424 2.453-2.19zm4.455-.47l1.476 1.616-1.635 1.46-1.476-1.616 1.635-1.46zM129.626 5.08l2.953 3.258-3.296 2.92L126.332 8l3.294-2.92zm5.194-.834l2.215 2.424-2.452 2.215-2.215-2.45 2.452-2.19zm4.614-.417l1.477 1.642-1.636 1.46-1.476-1.616 1.635-1.485z"/><g clip-path="url(#A)"><path d="M73.17 50.214h-2.492l-1.764 3h-.908l-.03-6.474h-2.36v11.7h2.36l.03-3.2h.902l2.342 3.2h2.614L70.8 54.17l2.36-3.957zm17.855 3.85a6.37 6.37 0 0 0-1.544-.697l-.66-.24c-.324-.117-.665-.24-.677-.558a.54.54 0 0 1 .063-.272c.044-.084.1-.156.2-.208a1.15 1.15 0 0 1 .578-.19 1.92 1.92 0 0 1 1.261.363l.064.04 1.26-1.4-.064-.05a3.09 3.09 0 0 0-.51-.357 3.47 3.47 0 0 0-1.046-.374 4 4 0 0 0-1.608 0 3.05 3.05 0 0 0-1.41.558c-.264.2-.484.447-.65.728a2.41 2.41 0 0 0-.311.913 2.3 2.3 0 0 0 .428 1.641 3.5 3.5 0 0 0 1.735 1.005l.104.033.237.078c.856.28 1.1.4 1.237.558a.5.5 0 0 1 .104.29c0 .396-.503.558-.844.658-.24.043-.484.04-.72-.013a1.84 1.84 0 0 1-.656-.288 2.81 2.81 0 0 1-.798-.776l-1.417 1.4.04.056c.63.76 1.512 1.3 2.498 1.496a5.57 5.57 0 0 0 .682.084h.237a3.68 3.68 0 0 0 2.174-.653c.428-.292.756-.7.943-1.172a2.22 2.22 0 0 0 .118-.988 2.24 2.24 0 0 0-.326-.943 2.39 2.39 0 0 0-.717-.72zm7.62 0a6.32 6.32 0 0 0-1.538-.698l-.526-.2-.133-.05c-.33-.117-.665-.24-.682-.558.001-.094.026-.187.07-.27a.61.61 0 0 1 .189-.21 1.15 1.15 0 0 1 .578-.19c.452-.03.9.1 1.26.363l.058.04 1.26-1.4-.058-.05a2.99 2.99 0 0 0-.515-.357c-.323-.18-.675-.306-1.04-.374-.532-.1-1.08-.1-1.613 0a3.1 3.1 0 0 0-1.41.558c-.266.197-.488.443-.655.724a2.4 2.4 0 0 0-.317.911 2.26 2.26 0 0 0 .428 1.64 3.5 3.5 0 0 0 1.735 1.005l.098.033.237.078c.862.28 1.104.4 1.243.558a.44.44 0 0 1 .098.29c0 .396-.497.558-.84.66a1.85 1.85 0 0 1-.723-.013 1.81 1.81 0 0 1-.66-.29 2.96 2.96 0 0 1-.798-.776l-1.417 1.4.046.056c.63.76 1.512 1.3 2.498 1.496a5.57 5.57 0 0 0 .682.084h.237a3.68 3.68 0 0 0 2.174-.653 2.57 2.57 0 0 0 .943-1.172 2.22 2.22 0 0 0 .118-.988 2.24 2.24 0 0 0-.326-.943 2.38 2.38 0 0 0-.706-.714zm-17.73-3.85v.804h-.104c-.646-.624-1.52-.977-2.434-.982a4.14 4.14 0 0 0-1.633.303c-.516.2-.98.524-1.363.92a4.31 4.31 0 0 0-1.156 3.036c-.03 1.136.383 2.24 1.156 3.097.373.396.83.7 1.34.92a4.01 4.01 0 0 0 1.615.298 3.99 3.99 0 0 0 2.486-.921h.093v.72h2.452v-8.192h-2.452zm.122 4.124c.025.66-.204 1.306-.642 1.814a2.15 2.15 0 0 1-.759.526c-.3.12-.603.176-.918.166-.305.005-.608-.057-.886-.18a2.02 2.02 0 0 1-.716-.534 2.67 2.67 0 0 1-.625-1.836c-.02-.645.206-1.274.636-1.77a2.07 2.07 0 0 1 .722-.525c.277-.12.58-.182.885-.178.313-.01.624.048.9.17a2.11 2.11 0 0 1 .749.529 2.64 2.64 0 0 1 .642 1.819zm26.546-4.124v.804h-.104a3.53 3.53 0 0 0-2.428-.982 4.14 4.14 0 0 0-1.635.304c-.517.2-.982.523-1.366.918a4.31 4.31 0 0 0-1.157 3.036c-.03 1.136.383 2.24 1.157 3.097a3.86 3.86 0 0 0 1.34.919 4.12 4.12 0 0 0 1.615.298 3.99 3.99 0 0 0 2.486-.921h.092v.72h2.452v-8.192h-2.452zm.122 4.124a2.6 2.6 0 0 1-.642 1.814 2.15 2.15 0 0 1-.759.526 2.22 2.22 0 0 1-.918.166 2.09 2.09 0 0 1-.885-.18 2.02 2.02 0 0 1-.717-.534c-.432-.518-.654-1.17-.624-1.836-.02-.645.207-1.274.636-1.77a2.06 2.06 0 0 1 .722-.525 2.15 2.15 0 0 1 .885-.178 2.14 2.14 0 0 1 .91.17c.285.122.543.3.75.53.44.5.67 1.157.642 1.82zM49.513 45.36c-5.1 0-9.14 3.963-9.14 8.82 0 4.912 4.107 8.82 9.14 8.82s9.14-3.963 9.14-8.82-4.107-8.82-9.14-8.82zm0 12.058c-1.85 0-3.413-1.507-3.413-3.294s1.562-3.294 3.413-3.294 3.413 1.507 3.413 3.294a3.4 3.4 0 0 1-3.413 3.294zm-9.197-9.546v12.84h-3.24l-4.164-12.84h7.404z"/></g></g><defs><clipPath id="A"><path fill="#fff" transform="translate(32.912 45.36)" d="M0 0h77.172v17.64H0z"/></clipPath></defs></svg>
